X:1
T:Brightly Beams Let The Lower Lights
T:Lower Lights Philip.P. Bliss
T:Brightly Beams Our Father's Mercy 
T:Let The Lower Lights Be Burning 
T:Philip P. Bliss
T:From the Hymnal for American Youth (1919) © 1905 The John Church Co. This Score is in the Public Domain in the United States.
C:Philip P. Bliss
Z:Philip P. Bliss
Z:From the Hymnal for American Youth (1919)
Z:© 1905 The John Church Co.
Z:This Score is in the Public Domain in the United States.
%%score { ( 1 3 ) | ( 2 4 ) }
L:1/8
Q:1/4=100
M:3/4
K:Bb
V:1 treble nm="Piano"
V:3 treble 
V:2 bass 
V:4 bass 
V:1
 [DF]>[EG] | [DF]3 [Fd] [Ec][DB] | [FA] [EG]3 [EG]>[EG] | [=Ec]3 [EB] [EA][EB] | F2 _E2 | %5
w: 1.~Bright- ly|beams our Fa- ther's|mer- cy from his|light- house ev- er-|more, *|
w: 2.~Dark the|night of sin has|set- tled, loud the|an- gry bil- lows|roar; *|
w: 3.~Trim your|fee- ble lamp, my|broth- er; some poor|sail- or tem- pest-|tossed, *|
 [DF]>[EG] | [DF]3 [DB] [Ec][Fd] | [Ge] [EG]3 [GB]>[Gc] | [Fd][DB] [Ec]3 [CA] | [DB]4 | %10
w: but to|us he gives the|keep- ing of the|lights a- long the|shore.|
w: ea- ger|eyes are watch- ing,|long- ing, for the|lights a- long the|shore.|
w: try- ing|now to make the|har- bor, in the|dark- ness may be|lost.|
"^REFRAIN" [DB]>[DB] | [Ge]3 [Ge] [Ge]>[Ge] | [Ge] [Fd]3 [Fd]>[Fd] | [=Ed]3 [Ec] [EG]>[Ec] | %14
w: Let the|low- er lights be|burn- ing! Send a|gleam a- cross the|
w: ||||
w: ||||
 F2 _E2 | [DF]>[EG] | [DF]3 [DB] [Ec][Fd] | [Ge] [EG]3 [GB]>[Gc] | [Fd][DB] [Ec]3 [CA] | [DB]4 || %20
w: wave! *|Some poor|faint- ing strug- gling|sea- man you may|res- cue, you may|save.|
w: ||||||
w: ||||||
 [EB]6 | [DB]6 |] %22
w: A-|MEN.|
w: ||
w: ||
V:2
 [B,,B,]>[B,,B,] | [B,,B,]3 [B,,B,] [B,,B,][B,,B,] | [E,B,] [E,B,]3 [E,B,]>[E,G,] | %3
 [C,G,]3 [C,C] [C,C][C,B,] | [F,A,]4 | [B,,B,]>[B,,B,] | [B,,B,]3 [B,,B,] [B,,B,][B,,B,] | %7
 [E,B,] [E,B,]3 [E,B,]>[E,B,] | [F,B,]F, [F,A,]3 [F,C] | [B,,B,]4 | B,>B, | %11
 [E,B,]3 [E,B,] [E,B,]>[E,B,] | [B,,B,] [B,,B,]3 B,>B, | [C,C]3 [C,C] [C,C]>[C,B,] | [F,A,]4 | %15
 [B,,B,]>[B,,B,] | [B,,B,]3 [B,,B,] [B,,B,][B,,B,] | [E,B,] [E,B,]3 [E,B,]>[E,B,] | %18
 [F,B,]F, [F,A,]3 [F,C] | [B,,B,]4 || [B,,G,]6 | [B,,F,]6 |] %22
V:3
 x2 | x6 | x6 | x6 | c4 | x2 | x6 | x6 | x6 | x4 | x2 | x6 | x6 | x6 | c4 | x2 | x6 | x6 | x6 | %19
 x4 || x6 | x6 |] %22
V:4
 x2 | x6 | x6 | x6 | x4 | x2 | x6 | x6 | x6 | x4 | B,>B, | x6 | x4 B,>B, | x6 | x4 | x2 | x6 | x6 | %18
 F,F, x4 | x4 || x6 | x6 |] %22

